X:1
T:Chinquapin
L:1/4
M:4/4
I:linebreak $
K:D
V:1 treble
V:1
 f/g/ |:"D" a f/a/ "A7"g/f/e/g/ |"D"  f d d f/g/ | a f"A7" g/f/g/a/ |"Em" b e e f/g/ |$
 "D"a f "A7"g e |"D"  f d "A"e c |"G"  d/c/B/A/ "A"B/c/d/e/ |1"D"  f d d f/g/ :|2"D"  f d d A |:$
 |:"D" d A F A |"A" B A/A/ A A |"D"  d A F A |"A" E3/2 F/ E A |$
  "D" d A F A |"G" B g f e |"D"  d/c/B/A/ "A7"B/c/d/e/ |1"D"  f d d A :|2"D"  f d d z |]
